X: 124
T: New Figary
M:4/4
L:1/8
Q:160
S:Playford
O:Manuscript
A:English
K:Dm
F \
|::: B>B c>c d>e fd | ed  c>B  B3    F  | B>B c>c d>e fd    | g>f =e>f f3 F :::|
|::: f>f g>a b2  ab | g>g a>g ^f2 de/f/ | gg  gf  =e2 cd/e/ | fd   c>B B4   :::|
M:6/8
|: dfd c>BA | B2 F B2 c | dfd c>BA | B3 d3 |\
   dfd c>BA | B2 F B2 c | dfd c>BA | B3 d3 :|
|: dfd f3 | dfd f3 | g>ab d>ed | c2 B B3 |\
   dfd f3 | dfd f3 | g>ab d>ed | c2 B B3 :|
